X:34
T:The Caledonian Hunts Strathspey
S:Petrie's Third Collection of Strathspey Reels and Country Dances &c.
Z:Steve Wyrick , 7/30/05
N:Petrie's Third Collection, page 14
L:1/8
M:C
R:Strathspey
K:D
A|F<Ad>A B>dA>F|G>BA<F B>EE>A|F<Ad>A B>dA>F|1G>BA>G FBA>g F<dd||f|
(d/e/f/g/) a>f b>ga>f|(d/e/f/g/) a>f g<ee>f|(d/e/f/g/) a>f b>ga>f|e<a-a>g f<dd<f|
(d/e/f/g/) a>f b>ga>f|(d/e/f/g/) a>f g<ee>g|f>de<f d>BA<F|A>Bd>e f<d d|]
